X: 5
T: No_104_Moccasin_Game_Song_(b).krn
%%abc-version 2.0
%%abcx-abcm2ps-target-version 5.9.1 (29 Sep 2008)
%%abc-creator hum2abc beta
%%abcx-conversion-date 2020/08/10 18:54:57
%%gracespace 0 6 6
%%humdrum-veritas 2602153344
%%humdrum-veritas-data 2622070249
%%linebreak <none>
%%barnumbers 0
L: 1/8
M: 2/4
%%staves {1 2}
V: 1 clef=bass
V: 2 clef=bass
K: E
[V:1] [K:clef=bass][M:2/4]C2G,3/C/ | 
[V:2] [K:clef=bass][M:2/4](3!accent!G,, z G,, (3!accent!G,, z G,, | 
[V:1] C4 | 
[V:2] (3!accent!G,, z G,, (3!accent!G,, z G,, | 
[V:1] CG, G,F, | 
[V:2] z4 | 
[V:1] G,4 | 
[V:2] z4 | 
[V:1] CF, E,E, | 
[V:2] z4 | 
[V:1] F,4 | 
[V:2] z4 | 
[V:1] F,E, C,C, | 
[V:2] z4 | 
[V:1] E,4 | 
[V:2] z4 | 
[V:1] F,E, C,C, ||  
[V:2] z4 ||  
[V:1] [M:3/4]C,<C, C,>C, C,C, ||  
[V:2] [M:3/4]z6 ||  
[V:1] [M:2/4]C,>C,C,2 ||  
[V:2] [M:2/4]z4 ||  
[V:1] [M:3/4]C,6 ||  
[V:2] [M:3/4]z6 ||  
[V:1] [M:2/4]G,2F,3/G,/ | 
[V:2] [M:2/4]z4 | 
[V:1] G,4 | 
[V:2] z4 | 
[V:1] CF, E,E, | 
[V:2] z4 | 
[V:1] F,4 | 
[V:2] z4 | 
[V:1] F,E, C,C, | 
[V:2] z4 | 
[V:1] E,4 | 
[V:2] z4 | 
[V:1] F,E, C,C, ||  
[V:2] z4 ||  
[V:1] [M:3/4]C,<C, C,>C, C,C, ||  
[V:2] [M:3/4]z6 ||  
[V:1] [M:2/4]C,>C,C,2 ||  
[V:2] [M:2/4]z4 ||  
[V:1] [M:3/4]C,6 |]  
[V:2] [M:3/4]z6 |]  


